X: 23361
T: Leitrim Lilter, The
R: reel
M: 4/4
K: Dmajor
B|AF~F2 DEFA|dfaf eB~B2|dAea ~f3e|dBAF FEEB|
AF~F2 DEFA|dfaf eB~B2|GBge fgef|dBAG FDD:|
E|FAdf a2bf|afdf eB~B2|ABde f2af|g2fg eABA|
FAdf a2bf|afdf eB~B2|GBge fgef|dBAG FDDE|
FAdf a2bf|afdf eB~B2|ABde f2af|g2fg efge|
af~f2 dB~B2|ABdf eB~B2|GBge fgef|dBAG FDD||

